X:1
T:Title
%%score { ( 1 3 ) | 2 }
L:1/8
M:4/4
K:Ab
V:1 treble nm="Grand Piano"
V:3 treble 
V:2 bass 
V:1
 z4 z2[Q:1/4=100] [A,CE][A,CE] | [CEA][CEA][DFA][DFA] [CEA][CEA][CEA][DEB] | %2
 [EAc][EAc][EAc][EAc] [CEA]2 [EA][EGB] | cccc AAGA | [GB]6 cd | eeee ecAB |[M:3/4] cc cc A2 | %7
[M:1/4] [FA]F |[M:17/16] EEABc<cc3/2B |[M:3/4] [CA]6 |[M:1/4] cd |[M:4/4] e6 z2 | c6 z2 | %13
 cccc dcBA | [EGB]6 [EAc][EGd] | [CAe][Ec][CEA][DEB] [EAc][CEA]EE |[M:3/4] FF FF [FB][FA] | %17
[M:1/4] [FA]F |[M:17/16] EEABc<cc3/2B |[M:7/4] [CA]6 z2 z2 z4 |] %20
V:2
 z4 z2 A,,A,, | A,,A,,A,,A,, A,,A,,A,,A,, | A,,A,,A,,A,, A,,2 C,E, | %3
 [A,EA][A,EA][A,EA][A,E] [F,CF][K:bass][F,CF][F,CF][F,CF] | [E,E]6 [A,E][K:treble][A,B,E] | %5
 [A,CA][A,CA][A,CA][A,CA] [A,CA][A,E][A,E][A,E] | %6
[M:3/4] [A,EA][A,EA] [A,EA][A,EA][K:bass] [A,CE]2 |[M:1/4] [D,D][D,A,D] | %8
[M:17/16] [E,A,C][E,A,C][F,A,C][F,A,D][E,A,E]<[E,A,E][E,G,E]3/2[E,G,D] |[M:3/4] [A,,A,]6 | %10
[M:1/4] z2 |[M:4/4] z2 [A,C][A,C] [A,C][E,A,E][C,A,][E,G,E] | %12
 [A,E]A,[F,A,][F,A,] A,2[K:treble] [A,CE][A,DE] | %13
 [A,EA][A,EA][A,EA][A,EA] [B,EG][A,EA][K:bass][G,E][F,=DF] | E,4 D,2 C,B,, | %15
 A,,[A,,A,]A,,A,, A,,A,,[C,A,][C,A,] |[M:3/4] [D,A,D][D,A,D] [D,A,D][D,A,D] [D,D][D,D] | %17
[M:1/4] [D,D][D,A,D] |[M:17/16] [E,A,C][E,A,C][F,A,C][F,A,D][E,A,E]<[E,A,E][E,G,E]3/2[E,G,D] | %19
[M:7/4] [A,,A,]6 z2 z2 z4 |] %20
V:3
 x8 | x8 | x8 | x8 | x8 | x8 |[M:3/4] x6 |[M:1/4] x2 |[M:17/16] x17/2 |[M:3/4] x6 |[M:1/4] x2 | %11
[M:4/4] z2 AA Ac[EA]B | z EFF E2 AB | x8 | x8 | x8 |[M:3/4] x6 |[M:1/4] x2 |[M:17/16] x17/2 | %19
[M:7/4] x14 |] %20

